X:1
T:Ave Maria
T:Ave Maria
T:Jean Mouton
T:Source : Trium vocum cantiones---Nürnberg---J.Petreius---1541. Editor : André Vierendeels (13/04/16). 
T:Notes : Original clefs : C4, C3, C4 Discantus and Tenor interchanged from original print Editorial accidentals above the staff Original note values have been halved Square brackets indicate ligatures Dotted brackets indicate black notes m 81 and 82 in T 2 : AGABb for GGAF in original print m 80 in T2 : "G" noted as double whole note in original print
T:©
T:©
T:©
T:©
T:©
T:©
T:©
T:©
C:Jean Mouton
Z:©
%%score [ 1 2 3 ]
L:1/8
Q:1/4=100
M:2/2
K:F
V:1 treble-8 nm="Tenor 1" snm="T 1"
V:2 treble-8 nm="Tenor 2" snm="T 2"
V:3 treble-8 nm="Tenor 3" snm="T 3"
V:1
 z8 | z8 | z8 | z8 | G8 | G4 G4 | B6 AG | B2 G2 B3 c | d3 e fg a2- | ag g4 f2 | g4 z4 | z2 g4 f2 | %12
w: ||||A-|ve Ma-|ri- * *||||a,|Ma- ri-|
 e4 d4 | z2 g2 g2 f2 | g4 a4 | g2 g2 f2 f2 | g4 agfe | d2 g4 f2 | g4 z2 d2 | f4 e2 f2 | %20
w: * a,|a- ve Ma-|ri- *|a, gra- ti- a|ple- * * * *||na, Do-|mi- us te-|
 g3 f g2 a2- | a2 gf e4 | f2 g4 a2- | agfe d2 g2 | gfed c2 g2- | g2 f4 e2 | f8 | z8 | z2 F2 B4 | %29
w: ||||||cum,||Do- mi-|
 c2 d4 cB | A2 D2 G4 | F4 z4 | z2 A2 B4 | A4 G4 | F2 F2 G2 G2 | GABc defg | a2 g4 f2 | g4 z4 | %38
w: nus te- * *||cum,|be- ne|di- cta|tu in mu- li-|e- * * * * * * *|* * ri-|bus,|
 z2 g2 f4 | e4 f2 d2 |"^#" z2 g4 f2 | g4 z4 | z2 g2 d2 f2- | f2 g4 fe | d2 GA Bcde | f2 g4 f2 | %46
w: in mu-|li- e- *|* ri-|bus,|in mu- li-|* e- * *||* * ri-|
 g4 z4 | z8 | z8 | z8 | z8 | z2 d2 f2 f2 | e4 d2 g2- | g2 f4 e2 | f4 z4 | z2 f2 g2 g2 | d4 e2 g2- | %57
w: bus,|||||et be- ne-|di- ctus fru-||ctus,|et be- ne-|di- ctus fru-|
 g2 f2 g2 a2- |"^#" ag g4 f2 | g4 z2 g2 | d2 d2 f3 e/d/ | c2 d2 e2 f2- | f2 d4 c2 | d4 z2 d2 | %64
w: * ctus ven- tris|_ _ tu- *|i, fru-|ctus ven- tris _ _|_ _ _ _|* * tu-|i, fru-|
 e4 f4 | d2 a4 g2 | f2 g4 f2 |[M:6/4] g8 z4 | z4 d4 f4 | e4 d4 f4 | e4 d4 f4- | f2 ed c8 | %72
w: ctus ven-|tris tu- *||i,|et be-|ne- di- ctus|fru- ctus ven-|* * * tris|
 e4 g6 fe | d8 e4 | f6 e2 d4 | c4 e4 f4 | g6 f2 e4 | d4 f4 g4 | a6 g2 f4 | e12 | f4 g4 e4 | d8 e4 | %82
w: tu- * * *|||i Ie- sus|Chri- * *|stus, Ie- sus|Chri- * *||||
 f4 d8 | c8 d4 | e8 f4 | g4 a6 g2 | g8 f4 | g12 |] %88
w: |||||stus.|
V:2
 z8 | z8 | G8 | G4 G4 | B6 AG | B2 G2 B3 c | d4 z2 d2- | d2 cB dcBA | GABc d2 c2- | cB G2 A4 | %10
w: ||A-|ve Ma-|ri- * *||a, Ma-|||* * * ri-|
 G4 z4 | z8 | z8 | z8 | z2 G2 F2 F2 | G4 A4 | G4 c4 | B2 G2 A4 | G4 z2 G2 | d4 c4 | d4 c4 | d4 c4 | %22
w: a,||||a- ve Ma-|ri- *|a, gra-|ti- a ple-|na, gra-|ti- a|ple- na,|Do- mi-|
 B4 c4 | d4 B4 | c4 A2 B2- | BA F2 G4 | F4 z4 | z2 F2 B4 | c2 d4 cB | A2 D2 G4 | F4 z4 | z2 A2 B4 | %32
w: nus te-|cum, Do-|mi- nus te-||cum,|Do- mi-||* nus te-|cum,|be- ne|
 A4 G4 | F4 G2 B2 | A2 c2 B2 d2- | d2 GA Bc d2 | c2 B2 A4 | G4 z4 | z8 | z8 | z8 | z2 G2 A4 | %42
w: di- cta|tu in mu-|li- e- * *||* * ri-|bus,||||in mu-|
 B4 A4 | B4 c4 | B2 d4 cB | A2 G2 A2 A2 | G4 z2 G2 | F2 B2 A2 G2 | F2 B3 cde | f2 e4 d2 | %50
w: li- e-|ri- bus,|in mu- * *|* li- e- ri-|bus, et|be- ne- di- ctus|fru- ctus _ _ _|ven- * *|
"^#" c2 d4 c2 | d4 z2 A2 | c4 B4 | A2 GF G4 | F2 F2 B2 B2 | A4 G4 | z8 | z4 z2 c2- | c2 B2 A4 | %59
w: * tris tu-|i, et|be- ne-|di- * * *|ctus, et be- ne-|di- ctus||fru-|* ctus ven-|
 G4 z4 | z8 | z8 | z4 z2 G2 | A4 A4 | B4 c4 | B2 c4 B2 | A2 G2 A4 |[M:6/4] G8 z4 | G4 B4 A4 | %69
w: tris,|||fru-|ctus ven-|tris tu-|i Ie- sus|Chri- * *|stus,|et be- ne|
 G4 B4 A4 | G4 B6 AG | F8 A4 | c6 BA G4 | B6 A2 G4 | F4 A4 B4 | c6 B2 A4 | G4 B4 c4 | d6 c2 B4 | %78
w: di- ctus fruc-|tus ven- * *|* tris|tu- * * *||||i, Ie- sus|Chri- * *|
 A8 B4 | c4 A4 G4 | A4 B4 G4 | F4 G8 | A8 B4 | c8 A4 | G8 B4 | B4 c4 d4 | B4 A8 | G12 |] %88
w: * stus,|Ie- * *||||||||stus.|
V:3
 G8 | G4 G4 | B6 AG | B2 G2 B3 c |"^#" d4 z2 d2- | d2 cB dcBA | G8 | z4 z2 G2- | G2 FE D2 F2- | %9
w: A-|ve Ma-|ri- * *||a, a-||ve|Ma-||
 FG E2 D4 | z2 G4 F2 | E4 D4 | z2 G2 G2 F2 | G4 A4 | G4 z4 | z8 | z2 G2 F2 F2 | G2 E2 D4 | G4 G4 | %19
w: * * ri- a,|Ma- *|ri- a,|a- ve Ma-|ri- *|a,||gra- ti- a|ple- * na,|ple- na,|
 z2 D2 A4 | G4 E2 F2- | F2 G2 A4 | D2 E4 F2- | F2 D2 G3 F | ED C2 F2 E2- |"^b" EF D2 C4 | %26
w: gra- ti-|a ple- *|* * na,|Do- mi- *|* nus te- *||* * * cum,|
 z2 F2 B4 | c2 d4 cB | A2 D2 G4 | F4 z4 | z2 A2 B4 |"^#" A4 G4 | F4 G4 | z8 | z2 A2 B2 GA | %35
w: Do- mi|nus te- * *||cum,|be- ne|di- cta|_ tu,||in mu- li- *|
 Bc d2 G2 D2 | F2 G2 D4 | z2 G2 F4 | E4 F2 D2 | z2 G4 F2 | G2 B2 A4 | G4 z2 F2 |"^b" G2 E2 F2 D2- | %43
w: |e- ri- bus,|mu- li-|e- ri- bus,|in mu-|li- e- ri-|bus, in|mu- mi- li- e-|
"^b" D2 E4 F2 | G4 z2 G2 | F2 E2 D4 | z2 G2 F2 B2 | A2 G2 F2 B2 | A2 G4 G2 | F2 G4 F2 | E2 D2 E4 | %51
w: ||* ri- bus,|et be- ne-|di- ctus fru- ctus|ven- tris, fru-|ctus ven- tris|tu- * *|
 D4 z4 | z8 | z8 | z2 F2 G2 G2 | D4 E2 G2- | G2 F2 G2 B2 | A4 G2 F2- | F2 G2 D4 | G8 | %60
w: i,|||et be- ne|di- ctus fru-|ctus ven- tris tu-|||i,|
 z2 G2 D2 D2 | F3 E/D/ C2 D2 | F2 G2 E4 | D4 z2 D2 | G4 F4 | G2 F4 G2 | D2 E2 D4 | %67
w: ven- * tris|tu- * * * *||i, fru-|ctus ven-|tris tu- i|Ie- sus Chri-|
[M:6/4] G4 B4 A4 | G4 G4 D4 | E4 G4 D4 | E4 G4 D4 | D4 F6 ED | C6 D2 E2 F2 | G6 A2 B4 | c4 F4 G4 | %75
w: stus, et be-|ne- di- ctus|fru- ctus ven-|tris tu- i,|ven- tris _ _|_ _ _ _|tu- * *||
 C8 D4 | E6 D2 C4 |"^b" B,4 D4 E4 |"^b" F6 E2 D4 | C12 |"^b" D4 E4 C4 |"^#" B,8 C4 | D4 B,8 | %83
w: * i|Ie- * *|* * sus|Chri- * *|||* stus,|Ie- sus|
 F6 E2 D4 | C8 D4 | G4 F4 D4 | E4 C4 D4 | G12 |] %88
w: Chri- * *||||stus.|

